packages/axiom-materials/src/icon_svgs/dot-outline.svg

<svg height="16" viewBox="0 0 16 16" width="16" xmlns="http://www.w3.org/2000/svg"><path d="m8 14c-3.3137085 0-6-2.6862915-6-6s2.6862915-6 6-6 6 2.6862915 6 6-2.6862915 6-6 6zm0-.5c3.0375661 0 5.5-2.4624339 5.5-5.5 0-3.03756612-2.4624339-5.5-5.5-5.5-3.03756612 0-5.5 2.46243388-5.5 5.5 0 3.0375661 2.46243388 5.5 5.5 5.5z" fill-rule="evenodd"/></svg>

<?xml version="1.0" encoding="UTF-8"?>
<svg width="16px" height="16px" viewBox="0 0 16 16" version="1.1" xmlns="http://www.w3.org/2000/svg" xmlns:xlink="http://www.w3.org/1999/xlink">
    <!-- Generator: sketchtool 43.2 (39069) - http://www.bohemiancoding.com/sketch -->
    <title>dot-outline</title>
    <desc>Created with sketchtool.</desc>
    <defs></defs>
    <g id="Page-1" stroke="none" stroke-width="1" fill="none" fill-rule="evenodd">
        <g id="dot-outline" fill="#000000">
            <path d="M8,14 C4.6862915,14 2,11.3137085 2,8 C2,4.6862915 4.6862915,2 8,2 C11.3137085,2 14,4.6862915 14,8 C14,11.3137085 11.3137085,14 8,14 Z M8,13.5 C11.0375661,13.5 13.5,11.0375661 13.5,8 C13.5,4.96243388 11.0375661,2.5 8,2.5 C4.96243388,2.5 2.5,4.96243388 2.5,8 C2.5,11.0375661 4.96243388,13.5 8,13.5 Z" id="Mask"></path>
        </g>
    </g>
</svg>
